X: 2
T: Roddy McCorley
P: piffero primo a0428
O: arr Pat Egan
%R: march
F: http://ancients.sudburymuster.org/mus/med/pdf/yrofthefrenchC0.pdf
Z: 2020 John Chambers <jc:trillian.mit.edu>
M: 4/4
L: 1/8
K: G
GA |\
B2AB D2D2 | B3A G2D2 | E2G2 G3A | G6 Bc |\
d2d2 d2Bd | e3e d2B2 | G2E2 c3B | A6 Bc |
d2d2 d2Bd | e3e d2B2 | G2E2 c3B | A6 GA |\
B2AB D2D2 | B3A G2DD | EG3  G3A | G4 z2 |]


